ui/StatusQ/src/assets/img/icons/tiny/chevron-down.svg

<svg fill="none" height="16" viewBox="0 0 16 16" width="16" xmlns="http://www.w3.org/2000/svg"><path clip-rule="evenodd" d="m4.46967 6.46967c.29289-.29289.76777-.29289 1.06066 0l2.11612 2.11612c.19526.19526.51184.19526.7071 0l2.11615-2.11612c.2929-.29289.7677-.29289 1.0606 0s.2929.76777 0 1.06066l-2.99997 2.99997c-.29289.2929-.76777.2929-1.06066 0l-3-2.99997c-.29289-.29289-.29289-.76777 0-1.06066z" fill="#000" fill-rule="evenodd"/></svg>

<svg width="16" height="16" viewBox="0 0 16 16" fill="none" xmlns="http://www.w3.org/2000/svg">
<path fill-rule="evenodd" clip-rule="evenodd" d="M4.46967 6.46967C4.76256 6.17678 5.23744 6.17678 5.53033 6.46967L7.64645 8.58579C7.84171 8.78105 8.15829 8.78105 8.35355 8.58579L10.4697 6.46967C10.7626 6.17678 11.2374 6.17678 11.5303 6.46967C11.8232 6.76256 11.8232 7.23744 11.5303 7.53033L8.53033 10.5303C8.23744 10.8232 7.76256 10.8232 7.46967 10.5303L4.46967 7.53033C4.17678 7.23744 4.17678 6.76256 4.46967 6.46967Z" fill="black"/>
</svg>
